X:1
T:Carol of the bells
T: David Foster
T:Arranged by Nathaniel Braswell
%%score 1 2 3 4
L:1/8
Q:1/4=140
M:3/4
K:A
V:1 treble nm="Soprano" snm="S."
V:2 treble nm="Alto" snm="A."
V:3 treble-8 nm="Tenor" snm="T."
V:4 bass nm="Bass" snm="B."
V:1
"^\n\n" A2 GA F2 | A2 GA F2 | A2 GA F2 | A2 GA F2 |: A2 GA F2 | (A2 G)A F2 | A2 GA F2 | A2 GA F2 | %8
w: Hark! How the bells,|Sweet Sil- ver bells|all seem to say|throw cares a way|Christ- mas is- here|bri- ing good cheer|To young and old|meek and the bold|
 A2 GA F2 | A2 GA F2 | A2 GA F2 | A2 GA F2 |!mp! A2 GA F2 | A2 GA F2 | A2 (GA) F2 | (A2 G)A F2 | %16
w: Ding Dong Ding Dong|that is their song|with joy ful ring|all car- ol- ing|one seems to hear|words of good cheer|from ev- ry- where|fill- ing the air|
 c2 Bc A2 | c2 Bc A2 | c2 Bc A2 | c2 Bc A2 | f2 ff (ed) | c2 cc (BA) | B2 BB (cB) | F2 FF F2 | %24
w: oh how they pound|rais- ing the sound|o'er hill and dale|tell- ing their tale|joy'- fly * they ring|while peo- ple sing _|songs of good cheer, _|Christ- mas is here!|
 C^D ^EF GA | Bc B2 A2 | C^D ^EF GA | Bc B2 A2 | A2 GA F2 | A2 GA F2 | A2 GA F2 | A2 GA F2 | %32
w: Mer- ry, mer- ry, mer- ry,|mer- ry Christ- mas!|Mer- ry, mer- ry, mer- ry|mer- ry Christ- mas!|On, on they send,|on with- out end,|their joy- ful tone|to ev- 'ry home.|
 A2 GA F2 | A2 GA F2 | A2 GA F2 | A2 GA F2 :| A2 GA F2 | A2 GA F2 | A2 GA F2 | A2 GA F2 | %40
w: Ring, Christ- mas bells,|mer- ri- ly ring,|tell all the world|Je- sus is King!|Ding Dong Ding Dong|that is their song|with joy ful ring|all car- ol- ing|
 A2 GA F2 | A2 GA F2 | A2 (GA) F2 | (A2 G)A F2 | c2 Bc A2 | c2 Bc A2 | c2 Bc A2 | c2 Bc A2 | %48
w: one seems to hear|words of good cheer|from ev- ry- where|fill- ing the air|oh how they pound|rais- ing the sound|o'er hill and dale|tell- ing their tale|
 f2 ff (ed) |!f! c2 cc (BA) | B2 BB (cB) | F2 FF F2 | C^D ^EF GA | Bc B2 A2 | C^D ^EF GA | %55
w: joy'- fly * they ring|while peo- ple sing _|songs of good cheer, _|Christ- mas is here!|Mer- ry, mer- ry, mer- ry,|mer- ry Christ- mas!|Mer- ry, mer- ry, mer- ry|
 Bc B2 A2 | c6 | B2 c4 | z4 z2 | ^A6 | z6 | z6 | z6 | z6 |] %64
w: mer- ry Christ- mas!|Ding,|dong, ding,||Dong.|||||
V:2
 z4 z2 | z4 z2 | z4 z2 | z4 z2 |: F6 | E6 | D6 | C6 | F6 | E6 | D6 | C6 | F2 FF F2 | F2 FF F2 | %14
w: ||||Ding,|dong,|ding,|dong.|Ding,|dong,|ding,|dong.|one seems to hear|words of good cheer|
 F2 FF F2 | F2 FF F2 | A2 GA F2 | A2 GA F2 | A2 GA F2 | A2 GA F2 | F6 | F6 | F6 | F6 | C4 C2 | %25
w: from ev- ry- where|fill- ing the air|oh how they pound|rais- ing the sound|o'er hill and dale|tell- ing their tale|Ding,|dong,|ding,|dong.|Ring, ring,|
 (^D2 ^E2) F2 | C4 C2 | (^D2 ^E2) F2 | E6 | D6 | E6 | D6 | F4 A2 | F4 A2 | F4 A2 | F4 A2 :| c6 | %37
w: Christ- * mas!|Ring, ring,|Christ- * mas!|Ding,|dong,|ding,|dong.|Ding, dong,|ding, dong,|ding, dong,|ding, dong.|Ding|
 B6 | A6 | G6 | F2 FF F2 | F2 FF F2 | F2 FF F2 | F2 FF F2 | A2 GA F2 | A2 GA F2 | A2 GA F2 | %47
w: dong|ding|dong|one seems to hear|words of good cheer|from ev- ry- where|fill- ing the air|oh hos they pound|rais- ing the sound|o'er hill and dale|
 A2 GA F2 | F6 | F6 | F6 | F6 | C4 C2 | (^D2 ^E2) F2 | C4 C2 | (^D2 ^E2) F2 | F6 | G2 A4 | %58
w: tell- ing their tale|Ding,|dong,|ding,|dong.|Ring, ring,|Christ- * mas!|Ring, ring,|Christ- * mas!|Ding,|dong, ding,|
 z2 z2 F2- | F6 | z6 | z6 | z6 | z6 |] %64
w: Ding.|_|||||
V:3
 z4 z2 | z4 z2 | z4 z2 | z4 z2 |: z4 z2 | z4 z2 | z4 z2 | z4 z2 | d6 | c6 | B6 | F6 | d2 dd d2 | %13
w: ||||||||Ding,|dong,|ding,|dong.|one seems to hear|
 c2 cc c2 | d2 dd d2 | c2 cc c2 | c2 cc c2 | ^d2 dd d2 | e2 dd c2 | f2 dd c2 | (c4 B2) | c6 | d6 | %23
w: words of good cheer|from ev- ry- where|fill- ing the air|oh how they pound|rais- ing the sound|o're hill and dale|tell- ing their tale|Ding, _|dong,|ding,|
 c6 | z2 G4 | (A2 G2) c2 | z2 G4 | (A2 G2) c2 | c6 | B6 | c6 | B6 | c6 | c6 | c6 | c6 :| F3 c3 | %37
w: dong.|Ring,|Christ- * mas!|Ring,|Christ- * mas!|Ding,|dong,|ding,|dong.|Ding,|dong,|ding,|dong.|sing we|
 ^d3 B3 | c6 | A6 | B3 B3/2c3/2 | A3 G3 | F6- | F6 | [xF]3 c3 | ^d3 B3 | c6 | A6 | B3 B3/2c3/2 | %49
w: now of|Christ-|mas|No- e- l|sing we|he-|re|we|now of|Christ-|mas|No- e- l|
 A3 G3 | F6- | F6 | z2 G4 | (A2 G2) c2 | z2 G4 | (A2 G2) c2 | e2 d2 c2 | c6 | z2 c4- | c6 | z6 | %61
w: sing we|he-|re|Ring,|Christ- * mas!|Ring,|Christ- * mas!|ding dong ding|dong|Dong.|_||
 z6 | z6 | z6 |] %64
w: |||
V:4
 z4 z2 | z4 z2 | z4 z2 | z4 z2 |: z4 z2 | z4 z2 | z4 z2 | z4 z2 | D,6 | C,6 | B,,6 | F,,6 | %12
w: ||||||||Ding,|dong,|ding,|dong.|
 B,,2 B,,B,, B,,2 | F,,2 F,,F,, F,,2 | B,,2 B,,B,, B,,2 | F,2 F,F, F,2 | F,6 | F,6 | F,6 | F,6 | %20
w: one seems to hear|words of good cheer|from ev- ry- where|fill- ing the air|Ding,|dong,|ding,|dong.|
 A,,2 G,,A,, F,,2 | A,,2 G,,A,, F,,2 | A,,2 G,,A,, F,,2 | A,,2 G,,A,, F,,2 | C,6 | C,4 F,,2 | C,6 | %27
w: joy'- fly they ring,|while peo- ple sing|songs of good cheer,|Christ- mas is here!|Ring,|Christ- mas!|Ring,|
 C,2 z2 F,,2 | F,,6 | F,,6 | F,,6 | F,,6 | F,,6 | F,,6 | F,,6 | F,,6 :| z6 | z6 | z6 | z6 | z6 | %41
w: Christ- mas!|Ding,|dong,|ding,|dong.|Ding,|dong,|ding,|dong.||||||
 z6 | z6 | z6 | F,,6 | F,,6 | F,,6 | F,,6 | A,,2 G,,A,, F,,2 | A,,2 G,,A,, F,,2 | %50
w: |||Ding,|dong,|ding,|dong.|joy'- fly they ring,|while peo- ple sing|
 A,,2 G,,A,, F,,2 | A,,2 G,,A,, F,,2 | C,6 | C,4 F,,2 | C,6 | C,2 z2 F,,2 | F,,6 | B,,2 A,,2 G,,2 | %58
w: songs of good cheer,|Christ- mas is here!|Ring,|Christ- mas!|Ring,|Christ- mas!|Ding,|dong ding dong|
 (F,,6 | F,,6) | z6 | z6 | z6 | z6 |] %64
w: Ding.|_|||||

